X:81
T:Dull Sir John
R:Jig
M:6/8
L:1/8
Q:120
K:GDor
G2^F G2A|B>AB cAF|B2A B2c|d3 d2c|d2c d2e|f>gf F2B|A2B c>dc|B3 B3||
d2c d2e|f>gf F2B|A2B cd=B|c3 c2f|d>cd c2A|Bb2 a2d|d2g g>a^f|g3 g3||

